image/kitchen-icon2.svg

<svg width="64" height="64" viewBox="0 0 64 64" fill="none" xmlns="http://www.w3.org/2000/svg">
<path d="M46.1177 4H17.5687C14.4153 4 11.8589 6.47899 11.8589 9.53697V53.8328C11.8589 56.8908 14.4153 59.3698 17.5687 59.3698H46.1177C49.2711 59.3698 51.8275 56.8908 51.8275 53.8328V9.53697C51.8275 6.47899 49.2711 4 46.1177 4Z" stroke="#E03D3B" stroke-width="3.76471" stroke-linecap="round" stroke-linejoin="round"/>
<path d="M31.8433 53.1816H31.8796" stroke="#E03D3B" stroke-width="3.76471" stroke-linecap="round" stroke-linejoin="round"/>
<rect x="17.604" y="10.1162" width="28.4789" height="37.2741" rx="1.88235" stroke="#E03D3B" stroke-width="3.76471" stroke-linejoin="round"/>
</svg>

<?xml version="1.0" encoding="UTF-8" standalone="no"?>
<svg width="64" xmlns="http://www.w3.org/2000/svg" fill="none" viewBox="0 0 64 64" height="64">
 <path stroke-linejoin="round" stroke="#E03D3B" stroke-width="3.7647" stroke-linecap="round" d="m46.118 4h-28.549c-3.154 0-5.71 2.479-5.71 5.537v44.296c0 3.058 2.556 5.537 5.71 5.537h28.549c3.153 0 5.71-2.479 5.71-5.537v-44.296c0-3.058-2.557-5.537-5.71-5.537z"/>
 <path stroke-linejoin="round" stroke="#E03D3B" stroke-width="3.7647" stroke-linecap="round" d="m31.843 53.182h0.037"/>
 <rect stroke-linejoin="round" rx="1.8824" height="37.274" width="28.479" stroke="#E03D3B" y="10.116" x="17.604" stroke-width="3.7647"/>
</svg>
